X:1
T:Title
%%score { ( 1 3 ) | 2 }
L:1/8
M:4/4
K:G
V:1 treble nm="Grand Piano"
V:3 treble 
V:2 bass 
V:1
 z4 z2[Q:1/4=100] D>D | G>G G>G G2 G>B |[M:3/4] [CEA]>[CEG] [G,DF]>[G,CE] [G,B,D]2 | %3
[M:1/4] [G,B,D]>[B,DG] |[M:4/4] [FA]>[FA] [FA]>[FA] [FA]2 [EG]>[FA] | %5
[M:3/4] [DGB]>[DGB] [DGB]>[DAc] [DBd]2 |[M:1/4] [ce]>[Bd] |[M:4/4] z2 [FA]4 z2 |[M:3/4] z2 [DG]4 | %9
[M:1/4] [G,DG]>[G,DF] |[M:4/4] [G,CE]>[G,CE] [G,CE]>[G,DF] [G,EG]2 [CEG]>[C^DA] | %11
 [B,DB]>[DGB] [DGB]>[DAc] [DBd]2 [Ge]>[=Fd] | [Ec]2 [EA]2 G>G F>F |[M:3/4] [B,DG]6 |] %14
V:2
 z4 z2 [G,B,]>[G,B,] | [G,B,D]>[G,B,D] [G,B,D]>[K:treble][G,B,D] [G,B,D]2 [G,B,D]>[G,DG] | %2
[M:3/4][K:bass] C,>B,, C,>C, G,,2 |[M:1/4] G,,>G,, | %4
[M:4/4] [D,D]>[D,D] [D,D]>[D,D] [D,D]2 [D,D]>[D,D] |[M:3/4] G,>G, G,>G, G,2 |[M:1/4] G,>[G,B,] | %7
[M:4/4] [D,D]>[D,D] [D,D]>D, D,>D, D,>D, |[M:3/4] G,>G, G,>G, G,>G, |[M:1/4] B,,>B,, | %10
[M:4/4] C,>C, C,>C, C,2 C,>C, | G,>G, G,>G, G,2 G,>G, | %12
 [C,G,]2 [C,C]2 [D,B,D]>[D,B,D] [D,A,D]>[D,CD] |[M:3/4] G,,6 |] %14
V:3
 x8 | x8 |[M:3/4] x6 |[M:1/4] x2 |[M:4/4] x8 |[M:3/4] x6 |[M:1/4] x2 | %7
[M:4/4] [Ac]>[GB] z z/ D/ D>D [DBd]>[DAc] |[M:3/4] [DGB]>[CFA] B,>B, B,>B, |[M:1/4] x2 | %10
[M:4/4] x8 | x8 | x8 |[M:3/4] x6 |] %14

